arrow-vertical-lock.svg

<svg fill="currentColor" viewBox="0 0 24 24"><path d="M18.8 11V9.5C18.8 8.1 17.4 7 16 7s-2.8 1.1-2.8 2.5V11c-.6 0-1.2.6-1.2 1.2v3.5c0 .7.6 1.3 1.2 1.3h5.5c.7 0 1.3-.6 1.3-1.2v-3.5c0-.7-.6-1.3-1.2-1.3m-1.3 0h-3V9.5c0-.8.7-1.3 1.5-1.3s1.5.5 1.5 1.3zM9 6h3L8 2 4 6h3v12H4l4 4 4-4H9z"/></svg>

<svg  viewBox="0 0 24 24" fill="currentColor"><path  d="M18.8 11V9.5C18.8 8.1 17.4 7 16 7S13.2 8.1 13.2 9.5V11C12.6 11 12 11.6 12 12.2V15.7C12 16.4 12.6 17 13.2 17H18.7C19.4 17 20 16.4 20 15.8V12.3C20 11.6 19.4 11 18.8 11M17.5 11H14.5V9.5C14.5 8.7 15.2 8.2 16 8.2C16.8 8.2 17.5 8.7 17.5 9.5V11M9 6H12L8 2L4 6H7V18H4L8 22L12 18H9V6Z"/></svg>
